!!!!SEGMENT: pl-kk--kk-i-10--022-004_anonim--missa-alia-paschalis-sanctus.krn
!!!cenid: 16xx:1225
!!!COM: Anonim
!!!COM-rismid: pe30004985
!!!CDT:
!!!CNT:
!!!OPR: Missa alia Paschalis
!!!OTL: Sanctus
!!!OMV: 004
!!!PDT:
!!!AGN: Sacred; Mass
!!!SMS-siglum: PL-Kk
!!!SMS-shelfmark: Kk.I.10
!!!SMS-shelfwork: 022-004 M
!!!SMS-variant:
!!!SMS-altvar:
!!!NIFC-rismid: 1001154103
!!!URL-scan: http://repozytorium.nifc.pl/skany/pl-kk-nut--i-10
!!!ONB-nifc: UWAGA: części Mszy: 1. Kyrie, 2. Et in terra, 3. Patrem, 4. Sanctus, 5. Benedictus, 6. Agnus Dei. A (0038-0041), T (0087-0090), B (0136-0139)
!!!key:
**kern	**text	**kern	**text	**kern	**text
*part3	*part3	*part2	*part2	*part1	*part1
*staff3	*staff3	*staff2	*staff2	*staff1	*staff1
*Iempty	*	*Itenor	*	*Ialto	*
*I"[Baſsus]	*	*I"[Tenor]	*	*I"[Alt(us)]	*
*I'B	*	*I'T	*	*I'A	*
*clefF4	*	*clefC4	*	*clefC3	*
*k[b-]	*	*k[b-]	*	*k[b-]	*
*g:	*	*g:	*	*g:	*
*M3/1	*	*M3/1	*	*M3/1	*
=1-	=1-	=1-	=1-	=1-	=1-
0G	San-	0d	San-	1.g	San-
.	.	.	.	2f\	.
1G	-ct(us)	1B-	-ct(us)	2d\	.
.	.	.	.	2e\	.
=2-	=2-	=2-	=2-	=2-	=2-
1F	San-	1c	San-	2f\	.
.	.	.	.	2e\	.
0G	.	0B-	.	2d\	.
.	.	.	.	2c/	.
.	.	.	.	2d\	.
.	.	.	.	2e\	.
=3-	=3-	=3-	=3-	=3-	=3-
0.D	-ct(us)	0.d	-ct(us)	0.f	-ct(us)
=4-	=4-	=4-	=4-	=4-	=4-
*	*ij	*	*	*	*ij
!	!	!	!	!LO:TX:a:t=P:problem=♭ above	!
0E-X	San-	1.B-	San-	0e-X	San-
.	.	2c\	.	.	.
1BB-	.	1d	.	1d	.
=5-	=5-	=5-	=5-	=5-	=5-
!	!	!	!	!LO:TX:a:t=P:problem=♭ above	!
0C	.	0G	.	0e-X	.
1GG	-ct(us)	1d	-ct(us)	1d	-ct(us)
*	*	*	*	*	*Xij
=6-	=6-	=6-	=6-	=6-	=6-
0D	San-	1.d	San-	1.d	San-
.	.	2c\	.	2c/	.
1D	-ct(us)	2B-\	.	2B-/	.
.	.	2c\	.	2c/	.
=7-	=7-	=7-	=7-	=7-	=7-
0BB-	San-	0d	.	0d	.
!	!	!	!	!LO:TX:a:t=P:problem=♭ above	!
1C	.	1c	.	1e-X	-ct(us)
=8-	=8-	=8-	=8-	=8-	=8-
*	*	*	*	*	*ij
!	!	!LO:TX:t=2	!	!	!
1GG	.	00.d	-ct(us)	0.d	San-
0D	.	.	.	.	.
!!linebreak:original
=9-	=9-	=9-	=9-	=9-	=9-
0.GG	-ct(us)	.	.	0.d	-ct(us)
*	*Xij	*	*	*	*Xij
=10-	=10-	=10-	=10-	=10-	=10-
1.GG	D(o-	1.G	[Do-	1%3r	.
2GG/	-mi)-	2G/	-mi-	.	.
1GG	-n(us)	1G	-nus	.	.
=11-	=11-	=11-	=11-	=11-	=11-
*col	*	*col	*	*	*
0FF	De-	0A	De-	1%3r	.
0GG	-(us)	0G	-us	.	.
=12-	=12-	=12-	=12-	=12-	=12-
.	.	.	.	1%3r	.
1.FF	Sab-	1.A	Sa-	.	.
2FF/	-ba-	2A/	-ba-	.	.
*Xcol	*	*Xcol	*	*	*
=13-	=13-	=13-	=13-	=13-	=13-
0.BB-	-o[th]	0.B-	-oth]	1%3r	.
=14-	=14-	=14-	=14-	=14-	=14-
1D	Ple-	1F	Ple-	1A	p[le-
1D	-ni	1F	-ni	1A	-ni
1G	s(un)t	1G	s(un)t	1B-	sunt]
=15-	=15-	=15-	=15-	=15-	=15-
0F	Cae-	0A	cae-	0c	cae-
1F	-li	1A	-li	1c	-li
=16-	=16-	=16-	=16-	=16-	=16-
1D	Cae-	1d	cae-	1f	Cae-
1D	-li	1d	-li	1e	-li
1AA	et	1c	et	1c	et
=17-	=17-	=17-	=17-	=17-	=17-
1BB-	ter-	0.B-	ter-	1d	ter-
0GG	.	.	.	0e	.
!!linebreak:original
=18-	=18-	=18-	=18-	=18-	=18-
0FF	-ra	0A	-ra	0f	-ra
1F\	et	1A	Cae-	1c	Cae-
.	.	.	.	.	.
=19-	=19-	=19-	=19-	=19-	=19-
2BB-/	ter-	0B-	-li	0d	.
2C/	.	.	.	.	.
2D/	.	.	.	.	.
2E/	.	.	.	.	.
1F	.	1A	et	1c	-li
=20-	=20-	=20-	=20-	=20-	=20-
1G	.	1G	ter-	1B-	et
!LO:N:vis=0.	!	!LO:TX:a:t=P:problem=# above	!	!	!
0D	.	0F#	.	0A	ter-
=21-	=21-	=21-	=21-	=21-	=21-
0.GG	-ra	0.G	-ra	0.B-	-ra
=22-	=22-	=22-	=22-	=22-	=22-
1G	Ple-	1B-	ple-	1g	Ple-
1G	-ni	1B-	-ni	(2g\	-ni-
.	.	.	.	2f\)	.
1G	s(un)t	1B-	s(un)t	(2g\	-s(unt)
.	.	.	.	2a\)	.
=23-	=23-	=23-	=23-	=23-	=23-
0D	Cae-	[<1A	cae-	1f	cae-
.	.	1A]	.	(2f\	-li
.	.	.	.	2e\)	.
1G	-li	1B-	-li	(2f\	Cae-
.	.	.	.	2g\)	.
=24-	=24-	=24-	=24-	=24-	=24-
0F	Cae-	0c	Cae-	0a	.
1D	-li	1d	-li	1f	-li
=25-	=25-	=25-	=25-	=25-	=25-
1E	et	1c	et	0g	et
0F	ter-	0c	ter-	.	.
.	.	.	.	1f	ter-
!!linebreak:original
=26-	=26-	=26-	=26-	=26-	=26-
1BB-	-ra	1B-	-ra	1f	-ra
!	!	!	!	!LO:TX:a:t=Problem&colon; fragment niewidoczny	!
1.BB-	glo-	1.F	glo-	0ryy	.
!	!	!LO:TX:t=P:problem=kreska pseudotaktowa	!	!	!
2BB-/	-ri-	2G/	-ri-	.	.
=27-	=27-	=27	=27-	=27-	=27-
1F	-a	1A	-a	1f	a
!	!	!LO:TX:t=P:problem=kreska pseudotaktowa	!	!	!
0G	tu-	0G	tu-	0d	tu-
=28-	=28-	=28	=28-	=28-	=28-
1D	-a	1A	-a	1f	-a
*	*ij	*	*	*	*
2D/	glo-	1.A	glo-	1.f	glo-
2D/	-ri-	.	.	.	.
1E-X	-a	.	.	.	.
!	!	!LO:TX:t=P:problem=kreska pseudotaktowa	!	!LO:TX:a:t=P:problem=♭ above	!
.	.	2G/	-ri-	2e-X\	-ri-
=29-	=29-	=29	=29-	=29-	=29-
1BB-	tu-	1B-	-a	0d	-a
!	!	!LO:TX:t=P:problem=kreska pseudotaktowa	!	!	!
0C	.	0G	tu-	.	.
.	.	.	.	1e	tu-
=30-	=30-	=30	=30-	=30-	=30-
1GG	-a	1G	-a	0d	-a
*	*	*	*ij	*	*
2GG/	glo-	2B-\	glo-	.	.
2GG/	-ri-	2B-\	-ri-	.	.
*	*	*	*	*	*ij
!	!	!LO:TX:t=P:problem=kreska pseudotaktowa	!	!	!
1AA-X	-a	1A-X	-a	2c/	glo-
.	.	.	.	2c/	-ri-
=31-	=31-	=31	=31-	=31-	=31-
1FF	tu-	0A	tu-	1f	-a
0GG	.	.	.	0d	tu-
.	.	1G	.	.	.
=32-	=32-	=32-	=32-	=32-	=32-
0C	-a	0G	-a	0e	-a
*	*Xij	*	*Xij	*	*Xij
1C	o-	1c	o-	(2f\	o-
.	.	.	.	2g\)	.
!!pagebreak:original
=33-	=33-	=33-	=33-	=33-	=33-
1.F	-ſan-	1.c	-ſan-	1.f	-san-
2F\	-na	2c\	-na	2f\	-na
1C	in	1c	in	1e-X	in
=34-	=34-	=34-	=34-	=34-	=34-
1C	ex-	1c	ex-	1g	ex-
*	*	*	*	*lig	*
0D	-cel-	0A	-cel-	1g	-cel-
!	!	!	!	!LO:TX:a:t=P:problem=# above	!
.	.	.	.	1f#X	.
*	*	*	*	*Xlig	*
=35-	=35-	=35-	=35-	=35-	=35-
*custos:CC	*	*	*	*	*
0.GG	-ſis	0.B-	-ſis	1.g	-ſis
*	*	*	*	*	*ij
.	.	.	.	2f\	o-
.	.	.	.	2g\	-san-
.	.	.	.	2f\	-na
=36-	=36-	=36-	=36-	=36-	=36-
0.C	[ex]-	0c	in	0e	in
.	.	1d	ex-	1d	ex-
=37-	=37-	=37-	=37-	=37-	=37-
0.C	-cel-	0.c	-cel-	0.e	-cel-
=38-	=38-	=38-	=38-	=38-	=38-
!	!	!LO:TX:a:t=P:problem=# above	!	!	!
!	!	!LO:N:acc=#	!	!	!
0.GG;;	-ſis	0.Bn	-ſis	0.d	-ſis
*	*	*	*	*	*Xij
==	==	==	==	==	==
*-	*-	*-	*-	*-	*-
!!!system-decoration: [s1,s2,s3]
!!!RDF**kern: > = above
!!!RDF**kern: < = below
!!!AIN: 1 alto 1 empty 1 tenor
!!!ENC: Kamil Watkowski
!!!END: 2021-07-08
